X: 362
T: Grampian
C: Bert Murray
R: strathspey
B: Bert Murray's "Bon Accord Collection" 1999 p.36
%
Z: 2011 John Chambers <jc:trillian.mit.edu>
M: C
L: 1/8
K: G
uB2 |\
d<d d>B G2 (.G>.A) | B>dg>f g>d B<G | c<c c>A F2 (.F>.G) | A>cf>e d/e/d c/B/A |
d>ed>c B>A B<G | g>f e/f/g d2 B<G | A>cf>e d/^c/d e/d/=c | B/d/c B/c/A G2 ||
uD2 |\
G<G G>A B>dg>e | d/e/d c/B/A B<G G>E | =F>FF>G A>c=f>d | c/d/c _B/A/G A<=F F>D |
G<G G>A B>AB>g | d>ed>c B<G G>B | (3cBc (3edc (3BAB (3dcB | (3ABc (3def g2 |]

%%sep 2 1 500

